melody-of-light/img/icons/icomoon/close-popup.svg

<svg width="24" height="24" viewBox="0 0 24 24" fill="none" xmlns="http://www.w3.org/2000/svg">
<path fill-rule="evenodd" clip-rule="evenodd" d="M5.29289 5.29289C5.68342 4.90237 6.31658 4.90237 6.70711 5.29289L18.7071 17.2929C19.0976 17.6834 19.0976 18.3166 18.7071 18.7071C18.3166 19.0976 17.6834 19.0976 17.2929 18.7071L5.29289 6.70711C4.90237 6.31658 4.90237 5.68342 5.29289 5.29289Z" fill="#93939F"/>
<path fill-rule="evenodd" clip-rule="evenodd" d="M18.7071 5.29289C18.3166 4.90237 17.6834 4.90237 17.2929 5.29289L5.29289 17.2929C4.90237 17.6834 4.90237 18.3166 5.29289 18.7071C5.68342 19.0976 6.31658 19.0976 6.70711 18.7071L18.7071 6.70711C19.0976 6.31658 19.0976 5.68342 18.7071 5.29289Z" fill="#93939F"/>
</svg>

<svg width="24" height="24" fill="none" xmlns="http://www.w3.org/2000/svg"><path fill-rule="evenodd" clip-rule="evenodd" d="M5.293 5.293a1 1 0 011.414 0l12 12a1 1 0 01-1.414 1.414l-12-12a1 1 0 010-1.414z" fill="#93939F"/><path fill-rule="evenodd" clip-rule="evenodd" d="M18.707 5.293a1 1 0 00-1.414 0l-12 12a1 1 0 101.414 1.414l12-12a1 1 0 000-1.414z" fill="#93939F"/></svg>
